X: 1
T: On the Beautiful Blue Danube
C: Johann Strau\ss
R: waltz
Z: 2005 John Chambers <jc@trillian.mit.edu>
M: 6/8
L: 1/8
K: D
D DFA \
| "D"A2.a  .a2.f  |  .f2D  DFA |"A7"A2.a  .a2.g  |  .g2C  CEB |
|"A7"B2.b  .b2.g  |  .g2C CE.B | "D"B2.b  .b2.f  |  .f2D  DFA |
| "D"d2.d' .d'2.a |  .a2D  DFA | "G"d2.d' .d'2.b |  .b2E  EGB |
|"A7"B3-    B^GA  | "D"f3- fdF | "G"F2E "A7"B2A  | "D".D>DD "fine"D |]
K:A
.d.c \
| "E7".c.B.B z.B.^A | .^A.B.B         z.E.E | "A"F2E z.E.E | B2A "A"z.d.c |
| "E7".c.B.B z.B.c  |  .e.d.d "C#7/E#"z.G.B | "F#m"B2A "Bm"G3/F/D/B,/ | "E7"F/F/FE "A"A"d.C."z |]
